X:1
T:The Bright and Morning Star
T:The Bright and Morning Star
T:W. Lee Dunlavy
T:W. Lee Dunlavy, 1885
T:Public Domain Courtesy of the Cyber Hymnal™
T:Public Domain Courtesy of the Cyber Hymnal™
C:W. Lee Dunlavy
Z:Public Domain
Z:Courtesy of the Cyber Hymnal™
%%score 1 ( 2 3 )
L:1/8
Q:1/4=105
M:6/8
K:Ab
V:1 treble 
V:2 bass 
V:3 bass 
V:1
 [CE] | [CE]2 [DF] [CE]2 [A,C] z2 | [CA]3- [CA]2 [CE] z2 | [DF]2 [EG] [FA]2 [DF] z2 | %4
w: 1.~The|bright and morn- ing|star * Is|shed- ding forth its|
w: 2.~The|bright and morn- ing|star * Is|shin- ing forth for|
w: 3.~The|bright and morn- ing|star * Il-|lum- in- ates the|
w: 4.~Of|all the stars that|shine * There’s|none so great as|
 [CE]3- [CE]2 [CE] z2 | [DF]2 [FA] [FA]2 [DF] z2 | [CE] [CA]4 [CA] z2 | [EG]2 [EA] [EB]2 [Ec] z2 | %8
w: light, * As|God’s ma- jes- tic|glo- ry, To|guide His child- ren|
w: all * Who|love to see its|beau- ty, And|heed its gra- cious|
w: way * That|leads from earth to|Hea- ven; It|ne- ver leads as-|
w: this, * Be-|cause it shines for-|ev- er, And|gives e- ter- nal|
 [EB]3- [EB]2 [EB] z2 | [Ec]2 [Ec] [Ec]2 [DB] z2 | [CA] [CE]4 [CA] z2 | [DB]2 [DA] [DG]2 [DF] z2 | %12
w: right. * O,|may we all re-|ceive it, In|faith— in joy— in|
w: call. * “Come|un- to Me,” says|Je- sus, “And|I will give you|
w: tray. * For|if we on- ly|tra- vel Wher-|e’er its light doth|
w: bliss. * To|all who trust its|mer- it, It|ne- ver will grow|
 [CE]3- [CE]2 [CE] z2 | [DF]2 [EG] [EA]2 [EB] z2 | [Ec] [Ee]4 [Fd] z2 | [Ec]2 [EA] [Ec]2 [DB] z2 | %16
w: love— * Un-|til it guides us|safe- ly In-|to the realms a-|
w: rest, * For|I am meek and|low- ly”; O|be for- ev- er|
w: show, * The|morn- ing star will|guide us A-|way from ev- ery|
w: dim, * It|is the bless- èd|Je- sus, Who|cleans- es from all|
 [CA]3- [CA]2 z z2 |"^Refrain" [Ec]2 [Ec] [Ec]2 [Fd] z2 | [Ec] [EA]4 z z2 | %19
w: bove. *|||
w: blest. *|||
w: foe. *|||
w: sin. *|||
 [Gd]2 [Gd] [Gd]2 [Ge] z2 | [Gd] [EB]4 z z2 | [Ec]2 [Ec] [Ec]2 [Fd] z2 | [Ec] [EA]4 z z2 | %23
w: ||||
w: ||||
w: ||||
w: ||||
 [Ec]2 [EB] [EB]2 [EB] z2 | [EB]3- [EB]2 z z2 | [Ec]2 [Ec] [Ec]2 [Fd] z2 | [Ec] [EA]4 z z2 | %27
w: ||||
w: ||||
w: ||||
w: ||||
 [Gd]2 [Gd] [Gd]2 [Ge] z2 | [Gd] [EB]4 z z2 | [Ec]2 [Ec] [Ec]2 [Fd] z2 | [Ec] [EA]2 [Ae]2 [Fd] z2 | %31
w: ||||
w: ||||
w: ||||
w: ||||
 [Ec]3 [EB]3 z2 | [EA]3- [EA]2 |] %33
w: ||
w: ||
w: ||
w: ||
V:2
 [A,,A,] | [A,,A,]2 [A,,A,] [A,,A,]2 [A,,E,] z2 | [A,,E,]3- [A,,E,]2 [A,,A,] z2 | %3
w: ~|~ ~ ~ ~|~ * ~|
 [D,A,]2 [D,A,] [D,A,]2 [D,A,] z2 | [A,,A,]3- [A,,A,]2 [A,,A,] z2 | %5
w: ~ ~ ~ ~|~ * ~|
 [D,A,]2 [D,A,] [D,A,]2 [D,A,] z2 | [A,,A,] [A,,E,]4 [A,,E,] z2 | E,2 [E,F,] [E,G,]2 [E,A,] z2 | %8
w: ~ ~ ~ ~|~ ~ ~|~ ~ ~ ~|
 [E,G,]3- [E,G,]2 [E,G,] z2 | A,2 A, A,2 [E,G,] z2 | [A,,A,] [A,,A,]4 [A,,A,] z2 | %11
w: ~ * ~|~ ~ ~ ~|~ ~ ~|
 [D,F,]2 [D,F,] [D,G,]2 [D,A,] z2 | [A,,A,]3- [A,,A,]2 [A,,A,] z2 | %13
w: ~ ~ ~ ~|~ * ~|
 [D,A,]2 [D,B,] [C,A,]2 [E,G,] z2 | A, [A,C]4 [D,A,] z2 | [E,A,]2 [E,C] [E,A,]2 [E,G,] z2 | %16
w: ~ ~ ~ ~|~ ~ ~|~ ~ ~ ~|
 [A,,A,]3- [A,,A,]2 z z2 | A,2 A, A,2 A, z2 | A, [A,C]4 z z2 | [E,B,]2 [E,B,] [E,B,]2 [E,C] z2 | %20
w: ~ *|It will guide us|safe- ly,|Tho’ the way be|
 [E,B,] [E,G,]4 z z2 | A,2 A, A,2 A, z2 | A, [A,C]4 z z2 | [E,A,]2 [E,G,] [E,G,]2 [E,G,] z2 | %24
w: drear- y;|It will guide us|safe- ly|To e- ter- nal|
 [E,G,]3- [E,G,]2 z z2 | A,2 A, A,2 A, z2 | A, [A,C]4 z z2 | [E,B,]2 [E,B,] [E,B,]2 [E,C] z2 | %28
w: life. *|It will guide us|safe- ly|In- to bliss and|
 [E,B,] [E,G,]4 z z2 | A,2 A, A,2 A, z2 | A, [A,C]2 [C,A,]2 [D,A,] z2 | [E,A,]3 [E,D]3 z2 | %32
w: glo- ry;|It will guide us|safe- ly If we|trust its|
 [A,,C]3- [A,,C]2 |] %33
w: light. *|
V:3
 x | x8 | x8 | x8 | x8 | x8 | x8 | E,2 x6 | x8 | A,2 A, A,2 x3 | x8 | x8 | x8 | x8 | A, x7 | x8 | %16
 x8 | A,2 A, A,2 A, x2 | A, x7 | x8 | x8 | A,2 A, A,2 A, x2 | A, x7 | x8 | x8 | A,2 A, A,2 A, x2 | %26
 A, x7 | x8 | x8 | A,2 A, A,2 A, x2 | A, x7 | x8 | x5 |] %33

